X:978
T:Dublin Lasses, The
R:reel
H:See also #736 and #70 in G
D:Ashplant
Z:id:hn-reel-978
M:C|
L:1/8
K:F
cF~F2 cFdF | cFFG AGG2 | cF~F2 cdcA | GBAG FDD2 |
cF~F2 cFdF | cFFG AGG2 | FGAc d2cA | GBAG FDD2 || 
~f3g abag | fefg adde | ~f3g abag | fdec Adde |
~f3g abag | fefg add2 | afge f2ed | cAGB ADD2 ||

